icon-svg/kion-tv.svg

<?xml version="1.0" encoding="UTF-8" standalone="no"?>
<svg
   role="img"
   viewBox="0 0 24 24"
   fill="#44739e"
   version="1.1"
   id="svg1"
   sodipodi:docname="kion_my.svg"
   inkscape:version="1.3 (0e150ed6c4, 2023-07-21)"
   xmlns:inkscape="http://www.inkscape.org/namespaces/inkscape"
   xmlns:sodipodi="http://sodipodi.sourceforge.net/DTD/sodipodi-0.dtd"
   xmlns="http://www.w3.org/2000/svg"
   xmlns:svg="http://www.w3.org/2000/svg">
  <title
     id="title1">KION</title>
  <path
     id="path18"
     d="m 23.084429,8.4709022 h 0.372521 c 0.346934,0 0.549981,0.1727923 0.549981,0.4434052 0,0.2557228 -0.189657,0.462276 -0.533182,0.462276 h -0.113697 v 0.3570127 h -0.27611 V 8.4709022 Z m 0.643008,0.4538327 c 0,-0.1320782 -0.09982,-0.2015939 -0.243706,-0.2015939 h -0.123679 v 0.4081544 h 0.12514 c 0.142425,0 0.242245,-0.074475 0.242245,-0.2065605 z M 22.081438,8.723141 H 21.710524 V 8.4709022 h 1.013922 V 8.723141 h -0.368918 v 1.0104551 h -0.27409 z M 21.254203,9.7335961 21.142478,9.4252514 h -0.472194 l -0.108243,0.3083447 h -0.287992 l 0.472195,-1.2626939 h 0.318278 L 21.54368,9.7335961 Z M 20.746244,9.1988318 h 0.318278 L 20.905639,8.7588934 Z M 19.039648,8.4709022 h 0.792469 v 0.2487646 h -0.516383 v 0.2621697 h 0.472195 v 0.2284136 h -0.472195 v 0.2760616 h 0.516383 V 9.7335961 H 19.039648 Z M 17.962158,8.723141 H 17.591244 V 8.4709022 H 18.60519 V 8.723141 h -0.368942 v 1.0104551 h -0.27409 z m -1.993077,0.3793528 c 0,-0.3828197 0.282513,-0.6603834 0.651942,-0.6603834 0.370915,0 0.651943,0.2775637 0.651943,0.6603834 0,0.3828441 -0.281028,0.6603908 -0.651943,0.6603908 C 16.251594,9.7623977 15.969081,9.486823 15.969081,9.1024938 Z m 1.024342,0 c 0,-0.2591823 -0.181233,-0.4061579 -0.3724,-0.4061579 -0.193162,0 -0.372399,0.1474722 -0.372399,0.4061579 0,0.2606992 0.181233,0.4081641 0.372399,0.4081641 0.191167,-5.112e-4 0.3724,-0.1494613 0.3724,-0.4081641 z M 15.225256,9.2276333 H 14.708873 V 9.7335961 H 14.432787 V 8.4709022 h 0.276086 v 0.5059701 h 0.516383 V 8.4709022 h 0.274089 V 9.7335961 H 15.225256 Z M 12.709319,8.4709022 h 0.262671 v 0.8480781 h 0.0015 l 0.580949,-0.8480781 h 0.265642 V 9.7335961 H 13.557882 V 8.8750808 h -0.0015 l -0.58242,0.8585153 H 12.709806 V 8.4709022 Z M 11.909887,9.7335961 11.434211,9.1327805 V 9.7335961 H 11.158125 V 8.4709022 h 0.276086 V 9.0632721 L 11.906406,8.4709022 H 12.22965 L 11.725172,9.0940457 12.239583,9.734083 H 11.909887 Z M 10.090081,9.0905885 h 0.492573 V 9.2986268 H 10.090081 Z M 9.2380369,9.2276333 H 8.7216296 V 9.7335961 H 8.445568 V 8.4709022 H 8.7216296 V 8.9768723 H 9.2380369 V 8.4709022 H 9.5121265 V 9.7335961 H 9.2380369 Z M 6.722076,8.4708998 h 0.2626712 v 0.8480805 h 0.00149 L 7.5671814,8.4708998 H 7.8328228 V 9.7335961 H 7.5706629 V 8.8750808 h -0.00149 L 6.9867435,9.7335961 H 6.7225872 V 8.4708998 Z M 7.2856419,8.3571933 c -0.1777517,0 -0.3252166,-0.089874 -0.3252166,-0.3048729 h 0.1931384 c 0,0.103279 0.040731,0.158893 0.1320782,0.158893 0.091371,0 0.1320781,-0.056111 0.1320781,-0.158893 H 7.6108828 C 7.6123679,8.2678159 7.4653899,8.3571933 7.2856419,8.3571933 Z M 5.953442,9.7335961 5.8417173,9.4252514 H 5.3695227 L 5.2612794,9.7335961 H 4.9732882 L 5.4454828,8.4709022 H 5.7637607 L 6.2429183,9.7335961 Z M 5.4454828,9.1988318 H 5.7637607 L 5.6048774,8.7588934 Z M 3.4116741,9.5016985 c 0.1504595,0 0.2115198,-0.094828 0.2115198,-0.3217351 V 8.4704031 H 4.4901622 V 9.7330848 H 4.2140762 V 8.7226419 H 3.8923168 v 0.45384 c 0,0.4012011 -0.1390168,0.565538 -0.4806427,0.565538 z M 2.5705371,9.2276333 H 2.0541541 V 9.7335961 H 1.7780682 V 8.4709022 h 0.2760859 v 0.5059701 h 0.516383 V 8.4709022 H 2.8446266 V 9.7335961 H 2.5705371 Z M 0.00693057,9.1024938 c 0,-0.3828197 0.28252795,-0.6603834 0.65195236,-0.6603834 0.37091197,0 0.65195727,0.2775637 0.65195727,0.6603834 0,0.3828441 -0.2810453,0.6603908 -0.65195727,0.6603908 C 0.28945852,9.7623977 0.00693057,9.486823 0.00693057,9.1024938 Z m 1.02435433,0 c 0,-0.2591823 -0.18123558,-0.4061579 -0.37240197,-0.4061579 -0.19315303,0 -0.37240195,0.1474722 -0.37240195,0.4061579 0,0.2606992 0.18123557,0.4081641 0.37240195,0.4081641 0.19116639,0 0.37240197,-0.1494613 0.37240197,-0.4081641 z m 6.8566577,1.6599242 v 5.263795 c 0,0.117178 -0.09534,0.212518 -0.212518,0.212518 H 6.3030048 c -0.1171783,0 -0.212518,-0.09534 -0.212518,-0.212518 v -5.263795 c 0,-0.117179 0.09534,-0.212518 0.212518,-0.212518 h 1.3724198 c 0.1171783,0 0.212518,0.09485 0.212518,0.212518 z M 5.7419222,15.999894 4.1430827,13.264477 5.6585121,10.798182 c 0.072479,-0.105273 -0.00248,-0.248769 -0.1301061,-0.248769 l -1.6658646,0.003 c -0.052637,0 -0.1023028,0.02632 -0.1315912,0.07002 l -1.177285,2.000551 H 1.8664449 v -1.860536 c 0,-0.117179 -0.095315,-0.212518 -0.2124937,-0.212518 H 0.28201101 c -0.11718314,0 -0.212518,0.09534 -0.212518,0.212518 v 5.263795 c 0,0.117178 0.09533486,0.212518 0.212518,0.212518 H 1.6544382 c 0.1171782,0 0.212518,-0.09534 0.212518,-0.212518 v -1.853087 h 0.8361703 l 1.170322,1.990618 c 0.028802,0.04767 0.08044,0.07747 0.1360466,0.07747 h 1.5973787 c 0.1241169,0 0.2001014,-0.13556 0.1350484,-0.24132 z m 17.9898968,0.238837 c 0.117349,0 0.212542,-0.09534 0.212542,-0.212518 v -5.263795 c 0,-0.117179 -0.09519,-0.212518 -0.212542,-0.212518 h -1.322681 c -0.117178,0 -0.212518,0.09534 -0.212518,0.212518 l 0.0084,2.692714 -2.401242,-2.902749 h -1.525363 c -0.117178,0 -0.212518,0.09534 -0.212518,0.212518 v 5.264282 c 0,0.117178 0.09483,0.212031 0.212007,0.212031 h 1.319808 c 0.117178,0 0.212006,-0.09485 0.212006,-0.212031 v -2.696196 l 2.37692,2.905744 z M 17.515771,10.78428 v 5.219583 c 0,0.129595 -0.105249,0.234868 -0.234844,0.234868 H 8.6724746 c -0.1295948,0 -0.2348678,-0.105273 -0.2348678,-0.234868 V 10.78428 c 0,-0.129594 0.105273,-0.234867 0.2348678,-0.234867 h 8.6089394 c 0.129108,4.87e-4 0.234357,0.105273 0.234357,0.234867 z m -1.786525,1.278079 c 0,-0.04718 -0.04319,-0.08244 -0.08989,-0.07299 -0.93,0.185713 -4.223019,0.214003 -5.327314,-0.0015 -0.0457,-0.0089 -0.08789,0.02632 -0.08789,0.07348 v 2.582474 c 0,0.0457 0.04022,0.08044 0.08589,0.07399 0.915612,-0.135535 4.39634,-0.113209 5.335787,0.003 0.04468,0.0055 0.08341,-0.02931 0.08341,-0.07399 z M 7.8879426,10.762418 v 5.263795 c 0,0.117178 -0.09534,0.212518 -0.212518,0.212518 H 6.3030048 c -0.1171783,0 -0.212518,-0.09534 -0.212518,-0.212518 v -5.263795 c 0,-0.117179 0.09534,-0.212518 0.212518,-0.212518 h 1.3724198 c 0.1171783,0 0.212518,0.09485 0.212518,0.212518 z M 5.7419222,15.999894 4.1430827,13.264477 5.6585121,10.798182 c 0.072479,-0.105273 -0.00248,-0.248769 -0.1301061,-0.248769 l -1.6658646,0.003 c -0.052637,0 -0.1023028,0.02632 -0.1315912,0.07002 l -1.177285,2.000551 H 1.8664449 v -1.860536 c 0,-0.117179 -0.095315,-0.212518 -0.2124937,-0.212518 H 0.28201101 c -0.11718314,0 -0.212518,0.09534 -0.212518,0.212518 v 5.263795 c 0,0.117178 0.09533486,0.212518 0.212518,0.212518 H 1.6544382 c 0.1171782,0 0.212518,-0.09534 0.212518,-0.212518 v -1.853087 h 0.8361703 l 1.170322,1.990618 c 0.028802,0.04767 0.08044,0.07747 0.1360466,0.07747 h 1.5973787 c 0.1241169,0 0.2001014,-0.13556 0.1350484,-0.24132 z m 17.9898968,0.238837 c 0.117349,0 0.212542,-0.09534 0.212542,-0.212518 v -5.263795 c 0,-0.117179 -0.09519,-0.212518 -0.212542,-0.212518 h -1.322681 c -0.117178,0 -0.212518,0.09534 -0.212518,0.212518 l 0.0084,2.692714 -2.401242,-2.902749 h -1.525363 c -0.117178,0 -0.212518,0.09534 -0.212518,0.212518 v 5.264282 c 0,0.117178 0.09483,0.212031 0.212007,0.212031 h 1.319808 c 0.117178,0 0.212006,-0.09485 0.212006,-0.212031 v -2.696196 l 2.37692,2.905744 z M 17.515771,10.78428 v 5.219583 c 0,0.129595 -0.105249,0.234868 -0.234844,0.234868 H 8.6724746 c -0.1295948,0 -0.2348678,-0.105273 -0.2348678,-0.234868 V 10.78428 c 0,-0.129594 0.105273,-0.234867 0.2348678,-0.234867 h 8.6089394 c 0.129108,4.87e-4 0.234357,0.105273 0.234357,0.234867 z m -1.786525,1.278079 c 0,-0.04718 -0.04319,-0.08244 -0.08989,-0.07299 -0.93,0.185713 -4.223019,0.214003 -5.327314,-0.0015 -0.0457,-0.0089 -0.08789,0.02632 -0.08789,0.07348 v 2.582474 c 0,0.0457 0.04022,0.08044 0.08589,0.07399 0.915612,-0.135535 4.39634,-0.113209 5.335787,0.003 0.04468,0.0055 0.08341,-0.02931 0.08341,-0.07399 z"
      />
</svg>

<svg xmlns="http://www.w3.org/2000/svg" fill="#44739e" viewBox="0 0 24 24"><path d="M23.0844 8.4709h.3726c.3469 0 .55.1728.55.4434 0 .2557-.1897.4623-.5333.4623h-.1136v.357h-.2762V8.4709Zm.643.4538c0-.132-.0998-.2016-.2437-.2016h-.1236v.4082h.125c.1425 0 .2423-.0745.2423-.2066m-1.646-.2016h-.3709V8.471h1.014v.2522h-.369v1.0105h-.274zm-.8272 1.0105-.1117-.3083h-.4722l-.1083.3083h-.288l.4722-1.2627h.3183l.4792 1.2627Zm-.508-.5348h.3183l-.1589-.44Zm-1.7066-.7279h.7925v.2488h-.5164v.2621h.4722v.2285h-.4722v.276h.5164v.2473h-.7925Zm-1.0774.2522h-.371V8.471h1.014v.2522h-.369v1.0105h-.274zm-1.9931.3794c0-.3828.2825-.6604.652-.6604.3708 0 .6519.2776.6519.6604s-.281.6604-.652.6604c-.3694-.0005-.652-.276-.652-.6604m1.0243 0c0-.2592-.1812-.4062-.3724-.4062-.1931 0-.3724.1475-.3724.4062 0 .2607.1813.4082.3724.4082.1912-.0006.3724-.1495.3724-.4082m-1.7681.1251h-.5164v.506h-.2761V8.4709h.276v.506h.5165v-.506h.274v1.2627h-.274Zm-2.516-.7567h.2627v.848h.0015l.581-.848h.2656v1.2627h-.2622v-.8585h-.0015l-.5824.8585h-.2642V8.4709ZM11.91 9.7336l-.4757-.6008v.6008h-.276V8.4709h.276v.5924l.4722-.5924h.3232l-.5044.6231.5144.64H11.91Zm-1.8198-.643h.4926v.208H10.09Zm-.852.137h-.5165v.506h-.276V8.4709h.276v.506h.5164v-.506h.2741v1.2627h-.274ZM6.722 8.471h.2626v.848h.0015l.581-.848h.2656v1.2627h-.2621v-.8585h-.0015l-.5825.8585h-.2641V8.4709Zm.5635-.1137c-.1777 0-.3252-.0899-.3252-.3049h.1932c0 .1033.0407.159.132.159s.1321-.0562.1321-.159h.1932c.0015.2155-.1455.3049-.3253.3049M5.9534 9.7336l-.1117-.3083h-.4722l-.1082.3083h-.288l.4722-1.2627h.3183l.4791 1.2627Zm-.508-.5348h.3184l-.159-.44Zm-2.0337.3029c.1504 0 .2115-.0948.2115-.3217v-.7096h.867v1.2627H4.214V8.7226h-.3218v.4539c0 .4012-.139.5655-.4806.5655zm-.8412-.274h-.5163v.5059H1.778V8.4709h.276v.506h.5164v-.506h.2741v1.2627h-.274ZM.007 9.1024c0-.3828.2826-.6604.652-.6604.3709 0 .652.2776.652.6604s-.2811.6604-.652.6604c-.3694-.0005-.652-.276-.652-.6604m1.0244 0c0-.2592-.1813-.4062-.3724-.4062-.1932 0-.3724.1475-.3724.4062 0 .2607.1812.4082.3724.4082.1911 0 .3724-.1495.3724-.4082m6.8566 1.66v5.2637a.213.213 0 0 1-.2125.2125H6.303a.213.213 0 0 1-.2125-.2125v-5.2638a.213.213 0 0 1 .2125-.2125h1.3724a.2125.2125 0 0 1 .2125.2125m-2.146 5.2374-1.5988-2.7354 1.5154-2.4663c.0725-.1053-.0025-.2488-.13-.2488l-1.666.003a.159.159 0 0 0-.1315.07L2.5537 12.623h-.6873v-1.8606a.2127.2127 0 0 0-.2124-.2125H.282a.213.213 0 0 0-.2125.2125v5.2638c0 .1172.0953.2126.2125.2126h1.3724a.213.213 0 0 0 .2126-.2126v-1.853h.8361l1.1703 1.9906a.16.16 0 0 0 .1361.0774h1.5974A.1583.1583 0 0 0 5.7419 16zm17.99.2388a.2127.2127 0 0 0 .2125-.2125v-5.2638a.2127.2127 0 0 0-.2126-.2125h-1.3227a.213.213 0 0 0-.2125.2125l.0084 2.6927-2.4012-2.9027h-1.5254a.213.213 0 0 0-.2125.2125v5.2643a.212.212 0 0 0 .212.212h1.3198a.212.212 0 0 0 .212-.212v-2.696l2.377 2.9057zm-6.2161-5.4544v5.2196a.235.235 0 0 1-.2349.2348H8.6725a.235.235 0 0 1-.2349-.2348v-5.2196a.235.235 0 0 1 .2349-.2349h8.609a.235.235 0 0 1 .2343.2349m-1.7866 1.278a.0747.0747 0 0 0-.0898-.073c-.93.1858-4.223.214-5.3274-.0014a.074.074 0 0 0-.0878.0734v2.5825c0 .0457.0402.0805.0858.074.9157-.1355 4.3964-.1132 5.3358.003a.0743.0743 0 0 0 .0834-.074zM7.888 10.7625v5.2638a.213.213 0 0 1-.2125.2125H6.303a.213.213 0 0 1-.2125-.2125v-5.2638a.213.213 0 0 1 .2125-.2125h1.3724a.2125.2125 0 0 1 .2125.2125M5.742 16l-1.5988-2.7354 1.5154-2.4663c.0725-.1053-.0025-.2488-.13-.2488l-1.666.003a.159.159 0 0 0-.1315.07L2.5537 12.623h-.6873v-1.8606a.2127.2127 0 0 0-.2124-.2125H.282a.213.213 0 0 0-.2125.2125v5.2638c0 .1172.0953.2126.2125.2126h1.3724a.213.213 0 0 0 .2126-.2126v-1.853h.8361l1.1703 1.9906a.16.16 0 0 0 .1361.0774h1.5974A.1583.1583 0 0 0 5.7419 16zm17.99.2388a.2127.2127 0 0 0 .2125-.2125v-5.2638a.2127.2127 0 0 0-.2126-.2125h-1.3227a.213.213 0 0 0-.2125.2125l.0084 2.6927-2.4012-2.9027h-1.5254a.213.213 0 0 0-.2125.2125v5.2643a.212.212 0 0 0 .212.212h1.3198a.212.212 0 0 0 .212-.212V13.333l2.377 2.9057zm-6.2161-5.4544v5.2196a.235.235 0 0 1-.2349.2348H8.6725a.235.235 0 0 1-.2349-.2348v-5.2196a.235.235 0 0 1 .2349-.2349h8.609a.235.235 0 0 1 .2343.2349m-1.7866 1.278a.0747.0747 0 0 0-.0898-.073c-.93.1858-4.223.214-5.3274-.0014a.074.074 0 0 0-.0878.0734v2.5825c0 .0457.0402.0805.0858.074.9157-.1355 4.3964-.1132 5.3358.003a.0743.0743 0 0 0 .0834-.074z"/></svg>
